svg/sport/swimming_pool_line.svg

<?xml version="1.0" encoding="UTF-8"?>
<svg width="24px" height="24px" viewBox="0 0 24 24" version="1.1" xmlns="http://www.w3.org/2000/svg" xmlns:xlink="http://www.w3.org/1999/xlink">
    <title>swimming_pool_line</title>
    <g id="Icon" stroke="none" stroke-width="1" fill="none" fill-rule="evenodd">
        <g id="Sport" transform="translate(-816.000000, 0.000000)">
            <g id="swimming_pool_line" transform="translate(816.000000, 0.000000)">
                <path d="M24,0 L24,24 L0,24 L0,0 L24,0 Z M12.5935,23.2578 L12.5819,23.2595 L12.5109,23.295 L12.4919,23.2987 L12.4767,23.295 L12.4057,23.2595 C12.3958,23.2564 12.387,23.259 12.3821,23.2649 L12.378,23.2758 L12.3609,23.7031 L12.3659,23.7235 L12.3769,23.7357 L12.4805,23.8097 L12.4953,23.8136 L12.5071,23.8097 L12.6107,23.7357 L12.6233,23.7197 L12.6267,23.7031 L12.6096,23.2758 C12.6076,23.2657 12.601,23.2593 12.5935,23.2578 Z M12.8584,23.1453 L12.8445,23.1473 L12.6598,23.2397 L12.6499,23.2499 L12.6472,23.2611 L12.6651,23.6906 L12.6699,23.7034 L12.6784,23.7105 L12.8793,23.8032 C12.8914,23.8069 12.9022,23.803 12.9078,23.7952 L12.9118,23.7812 L12.8777,23.1665 C12.8753,23.1546 12.8674,23.147 12.8584,23.1453 Z M12.143,23.1473 C12.1332,23.1424 12.1222,23.1453 12.1156,23.1526 L12.1099,23.1665 L12.0758,23.7812 C12.0751,23.7927 12.0828,23.8019 12.0926,23.8046 L12.1083,23.8032 L12.3092,23.7105 L12.3186,23.7024 L12.3225,23.6906 L12.3404,23.2611 L12.3372,23.2485 L12.3278,23.2397 L12.143,23.1473 Z" id="MingCute" fill-rule="nonzero"></path>
                <path d="M9.50004,5 C8.67161,5 8.00004,5.67157 8.00004,6.5 L8.00004,10 L15.0000009,10 L15.0000009,6.5 C15.0000009,4.567 16.567,3 18.5000009,3 C20.433,3 22.0000009,4.567 22.0000009,6.5 C22.0000009,7.05228 21.5523,7.5 21.0000009,7.5 C20.4872429,7.5 20.0645049,7.11395571 20.0067299,6.61662025 L20.0000009,6.5 C20.0000009,5.67157 19.3285,5 18.5000009,5 C17.6716,5 17.0000009,5.67157 17.0000009,6.5 L17.0000009,15 C17.0000009,15.1436 16.9698,15.28 16.9153,15.4035 C17.2661,15.5942 17.701,15.5586 18.0173,15.3056 L19.3753,14.2191 C19.8066,13.8741 20.4359,13.944 20.7809,14.3753 C21.1259,14.8066 21.056,15.4359 20.6247,15.7809 L19.2667,16.8673 C18.2465,17.6834 16.8155,17.7455 15.7285,17.0208 L15.1622,16.6433 C14.7998,16.4017 14.3228,16.4224 13.9828,16.6944 L13.8741,16.7814 C12.7785,17.6579 11.2216,17.6579 10.126,16.7814 L10.0173,16.6944 C9.67726,16.4224 9.20026,16.4017 8.83792,16.6433 L8.27156,17.0208 C7.18454,17.7455 5.75352,17.6834 4.73337,16.8673 L3.37534,15.7809 C2.94408,15.4359 2.87416,14.8066 3.21917,14.3753 C3.56418,13.944 4.19347,13.8741 4.62473,14.2191 L6.00004,15.3191 L6.00004,6.5 C6.00004,4.567 7.56704,3 9.50004,3 C11.433,3 13.0000009,4.567 13.0000009,6.5 C13.0000009,7.05228 12.5523,7.5 12.0000009,7.5 C11.4872429,7.5 11.0645049,7.11395571 11.0067299,6.61662025 L11.0000009,6.5 C11.0000009,5.67157 10.3285,5 9.50004,5 Z M15,14.501 L15,12 L8.00004,12 L8.00004,14.818 C9.04549,14.2696 10.3295,14.3829 11.2667,15.1327 L11.3753,15.2196 C11.7406,15.5118 12.2595,15.5118 12.6247,15.2196 L12.7334,15.1327 C13.3865,14.6102 14.2081,14.3967 15,14.501 Z M18.0173,19.3056 C17.6773,19.5776 17.2003,19.5983 16.8379,19.3567 L16.2716,18.9792 C15.1845,18.2545 13.7535,18.3166 12.7334,19.1327 L12.6247,19.2196 C12.2595,19.5118 11.7406,19.5118 11.3753,19.2196 L11.2667,19.1327 C10.2465,18.3166 8.81554,18.2545 7.72852,18.9792 L7.16216,19.3567 C6.79982,19.5983 6.32281,19.5776 5.98276,19.3056 L4.62473,18.2191 C4.19347,17.8741 3.56418,17.944 3.21917,18.3753 C2.87416,18.8066 2.94408,19.4359 3.37534,19.7809 L4.73337,20.8673 C5.75352,21.6834 7.18454,21.7455 8.27156,21.0208 L8.83792,20.6433 C9.20026,20.4017 9.67726,20.4224 10.0173,20.6944 L10.126,20.7814 C11.2216,21.6579 12.7785,21.6579 13.8741,20.7814 L13.9828,20.6944 C14.3228,20.4224 14.7998,20.4017 15.1622,20.6433 L15.7285,21.0208 C16.8155,21.7455 18.2465,21.6834 19.2667,20.8673 L20.6247,19.7809 C21.056,19.4359 21.1259,18.8066 20.7809,18.3753 C20.4359,17.944 19.8066,17.8741 19.3753,18.2191 L18.0173,19.3056 Z" id="形状" fill="#09244B"></path>
            </g>
        </g>
    </g>
</svg>

<svg xmlns="http://www.w3.org/2000/svg" width="24" height="24"><g fill="none" fill-rule="evenodd"><path d="M24 0v24H0V0h24ZM12.594 23.258l-.012.002-.071.035-.02.004-.014-.004-.071-.036c-.01-.003-.019 0-.024.006l-.004.01-.017.428.005.02.01.013.104.074.015.004.012-.004.104-.074.012-.016.004-.017-.017-.427c-.002-.01-.009-.017-.016-.018Zm.264-.113-.014.002-.184.093-.01.01-.003.011.018.43.005.012.008.008.201.092c.012.004.023 0 .029-.008l.004-.014-.034-.614c-.003-.012-.01-.02-.02-.022Zm-.715.002a.023.023 0 0 0-.027.006l-.006.014-.034.614c0 .012.007.02.017.024l.015-.002.201-.093.01-.008.003-.011.018-.43-.003-.012-.01-.01-.184-.092Z"/><path fill="#09244B" d="M9.5 5A1.5 1.5 0 0 0 8 6.5V10h7V6.5a3.5 3.5 0 1 1 7 0 1 1 0 0 1-1.993.117L20 6.5a1.5 1.5 0 1 0-3 0V15c0 .144-.03.28-.085.403a1 1 0 0 0 1.102-.097l1.358-1.087a1 1 0 1 1 1.25 1.562l-1.358 1.086a3 3 0 0 1-3.538.154l-.567-.378a1 1 0 0 0-1.18.051l-.108.087a3 3 0 0 1-3.748 0l-.109-.087a1 1 0 0 0-1.18-.05l-.565.377a3 3 0 0 1-3.539-.154l-1.358-1.086a1 1 0 0 1 1.25-1.562L6 15.32V6.5a3.5 3.5 0 1 1 7 0 1 1 0 0 1-1.993.117L11 6.5A1.5 1.5 0 0 0 9.5 5Zm5.5 9.501V12H8v2.818a3 3 0 0 1 3.267.315l.108.087a1 1 0 0 0 1.25 0l.108-.087A2.999 2.999 0 0 1 15 14.5Zm3.017 4.805a1 1 0 0 1-1.18.05l-.565-.377a3 3 0 0 0-3.539.154l-.108.087a1 1 0 0 1-1.25 0l-.108-.087a3 3 0 0 0-3.538-.154l-.567.378a1 1 0 0 1-1.18-.051l-1.357-1.087a1 1 0 1 0-1.25 1.562l1.358 1.086a3 3 0 0 0 3.539.154l.566-.378a1 1 0 0 1 1.18.051l.108.087a3 3 0 0 0 3.748 0l.109-.087a1 1 0 0 1 1.18-.05l.566.377a3 3 0 0 0 3.538-.154l1.358-1.086a1 1 0 1 0-1.25-1.562l-1.358 1.087Z"/></g></svg>
